tools/panel_16/keyboard-battery-good.svg

<?xml version="1.0" encoding="UTF-8" standalone="no"?>
<svg
   xmlns:dc="http://purl.org/dc/elements/1.1/"
   xmlns:cc="http://creativecommons.org/ns#"
   xmlns:rdf="http://www.w3.org/1999/02/22-rdf-syntax-ns#"
   xmlns:svg="http://www.w3.org/2000/svg"
   xmlns="http://www.w3.org/2000/svg"
   xmlns:sodipodi="http://sodipodi.sourceforge.net/DTD/sodipodi-0.dtd"
   xmlns:inkscape="http://www.inkscape.org/namespaces/inkscape"
   width="16"
   height="16"
   version="1.1"
   id="svg2"
   inkscape:version="0.91 r13725"
   sodipodi:docname="keyboard-battery-good.svg">
  <metadata
     id="metadata17">
    <rdf:RDF>
      <cc:Work
         rdf:about="">
        <dc:format>image/svg+xml</dc:format>
        <dc:type
           rdf:resource="http://purl.org/dc/dcmitype/StillImage" />
      </cc:Work>
    </rdf:RDF>
  </metadata>
  <sodipodi:namedview
     pagecolor="#ffffff"
     bordercolor="#666666"
     borderopacity="1"
     objecttolerance="10"
     gridtolerance="10"
     guidetolerance="10"
     inkscape:pageopacity="0"
     inkscape:pageshadow="2"
     inkscape:window-width="1920"
     inkscape:window-height="1016"
     id="namedview15"
     showgrid="false"
     inkscape:zoom="14.75"
     inkscape:cx="8"
     inkscape:cy="8"
     inkscape:window-x="0"
     inkscape:window-y="34"
     inkscape:window-maximized="1"
     inkscape:current-layer="svg2" />
  <defs
     id="defs4">
    <style
       id="current-color-scheme"
       type="text/css">
   .ColorScheme-Text { color:#d3dae3; } .ColorScheme-Highlight { color:#5294e2; }
  </style>
  </defs>
  <g
     id="g7"
     transform="translate(2,0)">
    <path
       style="color:#d3dae3;opacity:0.3;fill:currentColor"
       class="ColorScheme-Text"
       d="M 0.5,0 C 0.223,0 0,0.22 0,0.5 l 0,0.5 -2,0 0,0 0,14.5 c 0,0.28 0.223,0.5 0.5,0.5 l 6,0 C 4.777,16 5,15.78 5,15.5 L 5,1 4.5,1 3,1 3,0.5 C 3,0.23 2.777,0 2.5,0 Z"
       id="path9"
       inkscape:connector-curvature="0" />
    <path
       style="color:#d3dae3;fill:currentColor"
       class="ColorScheme-Text"
       d="m -2,5 0,10.5 c 0,0.28 0.223,0.5 0.5,0.5 l 6,0 C 4.777,16 5,15.78 5,15.5 L 5,5 Z"
       id="path11"
       inkscape:connector-curvature="0" />
    <path
       style="color:#d3dae3;fill:currentColor;fill-rule:evenodd"
       class="ColorScheme-Text"
       d="M 8,1 C 7.446,1 7,1.45 7,2 l 0,13 c 0,0.55 0.446,1 1,1 l 5,0 c 0.554,0 1,-0.45 1,-1 L 14,2 C 14,1.45 13.554,1 13,1 Z M 8,4 9,4 9,5 8,5 Z m 2,0 1,0 0,1 -1,0 z m 2,1 1,0 0,7 -1,0 z M 8,6 9,6 9,7 8,7 Z m 2,0 1,0 0,1 -1,0 z M 8,8 9,8 9,9 8,9 Z m 2,0 1,0 0,1 -1,0 z m -2,2 1,0 0,1 -1,0 z m 2,0 1,0 0,1 -1,0 z m -2,2 1,0 0,1 -1,0 z m 2,0 1,0 0,1 -1,0 z"
       id="path13"
       inkscape:connector-curvature="0" />
  </g>
</svg>

<svg xmlns="http://www.w3.org/2000/svg" width="16" height="16" version="1.1">
 <defs>
  <style id="current-color-scheme" type="text/css">
   .ColorScheme-Text { color:#d3dae3; } .ColorScheme-Highlight { color:#5294e2; }
  </style>
 </defs>
 <g>
  <path style="opacity:0.3;fill:currentColor" class="ColorScheme-Text" d="M 0.5,0 C 0.223,0 0,0.22 0,0.5 V 1 H -2 V 1 15.5 C -2,15.78 -1.777,16 -1.5,16 H 4.5 C 4.777,16 5,15.78 5,15.5 V 1 H 4.5 3 V 0.5 C 3,0.23 2.777,0 2.5,0 Z"/>
  <path style="fill:currentColor" class="ColorScheme-Text" d="M -2,5 V 15.5 C -2,15.78 -1.777,16 -1.5,16 H 4.5 C 4.777,16 5,15.78 5,15.5 V 5 Z"/>
  <path style="fill:currentColor;fill-rule:evenodd" class="ColorScheme-Text" d="M 8,1 C 7.446,1 7,1.45 7,2 V 15 C 7,15.55 7.446,16 8,16 H 13 C 13.554,16 14,15.55 14,15 V 2 C 14,1.45 13.554,1 13,1 Z M 8,4 H 9 V 5 H 8 Z M 10,4 H 11 V 5 H 10 Z M 12,5 H 13 V 12 H 12 Z M 8,6 H 9 V 7 H 8 Z M 10,6 H 11 V 7 H 10 Z M 8,8 H 9 V 9 H 8 Z M 10,8 H 11 V 9 H 10 Z M 8,10 H 9 V 11 H 8 Z M 10,10 H 11 V 11 H 10 Z M 8,12 H 9 V 13 H 8 Z M 10,12 H 11 V 13 H 10 Z"/>
 </g>
</svg>
